X:118
T:Donats glömda
T:Polska efter Sven Donat (MA5-118)
R:Polska
S:Sven Donat
D:"Live Concert in Paris" med Björnlert, Hedin och Pekkari
O:Ormesberga Småland
B:Sven Donats notbok
N:MA5 118
Z:Arne Kjellman 2015-03-23
M:3/4
L:1/8
K:D
|: A>d cB/c/ d2 | e>f gf/e/ f2 | B>c d>f e>d | c>B A>^G AA, |
Ad cB/c/ d2 | e>f gf/e/ f2 | B>c d>f e>d | cB/c/ d2 d2 ::
Aa af/g/ a2 | e>f ga/g/ f2 | B>c d>f e>d | c>B A>^G AA, |
A,a af/g/ a2 | e>f ga/g/ f2 | B>c d>f e>d | cB/c/ d2 d2 :|

